assets/images/shortcut/android.svg

<svg width="32" height="32" viewBox="0 0 32 32" fill="none" xmlns="http://www.w3.org/2000/svg">
  <path d="M24.752 10.2876C24.752 5.61361 20.658 1.81061 15.625 1.81061C10.592 1.81061 6.49805 5.61361 6.49805 10.2876C6.49805 10.3076 6.50105 10.3276 6.50105 10.3476C6.50105 10.3586 6.49805 10.3686 6.49805 10.3806V23.2066C6.49805 24.7026 7.71605 25.9206 9.21205 25.9206H22.038C23.534 25.9206 24.752 24.7026 24.752 23.2066V10.3806C24.752 10.3696 24.749 10.3596 24.749 10.3476C24.749 10.3276 24.752 10.3086 24.752 10.2876Z" fill="white"/>
  <path d="M10.083 0.409576C9.79098 0.571576 9.68598 0.938576 9.84798 1.23058L13.137 7.16458C13.299 7.45658 13.666 7.56158 13.958 7.39958C14.25 7.23758 14.355 6.87058 14.193 6.57858L10.905 0.645576C10.743 0.353576 10.375 0.248576 10.083 0.409576ZM26.685 10.2876C25.453 10.2876 24.454 11.2866 24.454 12.5186V20.4186C24.454 21.6506 25.453 22.6496 26.685 22.6496C27.917 22.6496 28.916 21.6506 28.916 20.4186V12.5186C28.916 11.2866 27.917 10.2876 26.685 10.2876ZM18.785 19.3036C17.553 19.3036 16.554 20.3026 16.554 21.5346V29.4346C16.554 30.6666 17.553 31.6656 18.785 31.6656C20.017 31.6656 21.016 30.6666 21.016 29.4346V21.5346C21.016 20.3026 20.017 19.3036 18.785 19.3036ZM21.167 0.409576C21.459 0.571576 21.564 0.938576 21.402 1.23058L18.113 7.16458C17.951 7.45658 17.584 7.56158 17.292 7.39958C17 7.23758 16.895 6.87058 17.057 6.57858L20.346 0.644576C20.507 0.353576 20.875 0.248576 21.167 0.409576ZM4.56498 10.2876C5.79698 10.2876 6.79598 11.2866 6.79598 12.5186V20.4186C6.79598 21.6506 5.79698 22.6496 4.56498 22.6496C3.33298 22.6496 2.33398 21.6506 2.33398 20.4186V12.5186C2.33398 11.2866 3.33298 10.2876 4.56498 10.2876ZM12.465 19.3036C13.697 19.3036 14.696 20.3026 14.696 21.5346V29.4346C14.696 30.6666 13.697 31.6656 12.465 31.6656C11.233 31.6656 10.234 30.6666 10.234 29.4346V21.5346C10.234 20.3026 11.233 19.3036 12.465 19.3036Z" fill="#A4C638"/>
  <path d="M13.667 7.81161C13.58 7.81161 13.493 7.79961 13.407 7.77461C13.166 7.70561 12.966 7.54661 12.845 7.32761L9.555 1.39361C9.304 0.940607 9.468 0.368607 9.921 0.117607C10.374 -0.133393 10.946 0.0306065 11.197 0.483607L14.486 6.41761C14.608 6.63661 14.636 6.89061 14.567 7.13161C14.498 7.37261 14.339 7.57261 14.12 7.69361C13.98 7.77161 13.824 7.81161 13.667 7.81161ZM10.246 0.702607C10.116 0.774607 10.069 0.938607 10.141 1.06861L13.43 7.00261C13.465 7.06561 13.522 7.11161 13.591 7.13061C13.66 7.15061 13.733 7.14261 13.796 7.10761C13.926 7.03561 13.973 6.87161 13.901 6.74161L10.612 0.807607C10.54 0.677607 10.376 0.630607 10.246 0.702607ZM26.685 22.9836C25.271 22.9836 24.12 21.8326 24.12 20.4186V12.5186C24.12 11.1046 25.271 9.95361 26.685 9.95361C28.099 9.95361 29.25 11.1046 29.25 12.5186V20.4186C29.251 21.8336 28.1 22.9836 26.685 22.9836ZM26.685 10.6226C25.639 10.6226 24.789 11.4736 24.789 12.5186V20.4186C24.789 21.4646 25.64 22.3146 26.685 22.3146C27.73 22.3146 28.581 21.4636 28.581 20.4186V12.5186C28.581 11.4726 27.731 10.6226 26.685 10.6226ZM18.785 31.9996C17.371 31.9996 16.22 30.8486 16.22 29.4346V21.5346C16.22 20.1206 17.371 18.9696 18.785 18.9696C20.199 18.9696 21.35 20.1206 21.35 21.5346V29.4346C21.35 30.8486 20.2 31.9996 18.785 31.9996ZM18.785 19.6376C17.739 19.6376 16.889 20.4886 16.889 21.5336V29.4336C16.889 30.4796 17.74 31.3296 18.785 31.3296C19.83 31.3296 20.681 30.4786 20.681 29.4336V21.5336C20.681 20.4886 19.831 19.6376 18.785 19.6376ZM17.583 7.81161C17.426 7.81161 17.27 7.77161 17.129 7.69361C16.676 7.44261 16.512 6.87061 16.763 6.41761L20.052 0.483607C20.303 0.0306065 20.875 -0.133393 21.328 0.117607C21.781 0.368607 21.945 0.940607 21.694 1.39361L18.405 7.32761C18.283 7.54661 18.084 7.70561 17.843 7.77461C17.757 7.79961 17.67 7.81161 17.583 7.81161ZM20.874 0.668607C20.779 0.668607 20.687 0.718607 20.638 0.807607L17.349 6.74161C17.277 6.87161 17.324 7.03561 17.454 7.10761C17.517 7.14261 17.59 7.15061 17.659 7.13061C17.728 7.11061 17.786 7.06561 17.82 7.00261L21.109 1.06861C21.181 0.938607 21.134 0.774607 21.004 0.702607C20.963 0.679607 20.918 0.668607 20.874 0.668607ZM4.565 22.9836C3.151 22.9836 2 21.8326 2 20.4186V12.5186C2 11.1046 3.151 9.95361 4.565 9.95361C5.979 9.95361 7.13 11.1046 7.13 12.5186V20.4186C7.13 21.8336 5.979 22.9836 4.565 22.9836ZM4.565 10.6226C3.52 10.6226 2.669 11.4736 2.669 12.5186V20.4186C2.669 21.4646 3.52 22.3146 4.565 22.3146C5.61 22.3146 6.461 21.4636 6.461 20.4186V12.5186C6.461 11.4726 5.61 10.6226 4.565 10.6226ZM12.465 31.9996C11.051 31.9996 9.9 30.8486 9.9 29.4346V21.5346C9.9 20.1206 11.051 18.9696 12.465 18.9696C13.879 18.9696 15.03 20.1206 15.03 21.5346V29.4346C15.03 30.8486 13.879 31.9996 12.465 31.9996ZM12.465 19.6376C11.42 19.6376 10.569 20.4886 10.569 21.5336V29.4336C10.569 30.4796 11.42 31.3296 12.465 31.3296C13.51 31.3296 14.361 30.4786 14.361 29.4336V21.5336C14.361 20.4886 13.51 19.6376 12.465 19.6376Z" fill="white"/>
  <path d="M24.082 10.2786C24.077 5.97059 20.293 2.48059 15.625 2.48059C10.957 2.48059 7.17297 5.97059 7.16797 10.2786H24.082ZM19.529 5.77059C19.918 5.77059 20.235 6.08759 20.235 6.47659C20.235 6.86559 19.918 7.18259 19.529 7.18259C19.14 7.18259 18.823 6.86559 18.823 6.47659C18.823 6.08759 19.139 5.77059 19.529 5.77059ZM11.721 5.77059C12.11 5.77059 12.427 6.08759 12.427 6.47659C12.427 6.86559 12.11 7.18259 11.721 7.18259C11.332 7.18259 11.015 6.86659 11.015 6.47759C11.015 6.08859 11.332 5.77059 11.721 5.77059Z" fill="#A4C638"/>
  <path d="M7.16699 10.9476V23.2066C7.16699 24.3356 8.08199 25.2516 9.21199 25.2516H22.038C23.167 25.2516 24.083 24.3366 24.083 23.2066V10.9476H7.16699Z" fill="#A4C638"/>
</svg>

<svg width="32" height="32" fill="none" xmlns="http://www.w3.org/2000/svg"><path d="M24.752 10.288c0-4.674-4.094-8.477-9.127-8.477s-9.127 3.803-9.127 8.477l.003.06c0 .01-.003.02-.003.033v12.826a2.718 2.718 0 002.714 2.714h12.826a2.718 2.718 0 002.714-2.714V10.38c0-.011-.003-.021-.003-.033l.003-.06z" fill="#fff"/><path d="M10.083.41a.603.603 0 00-.235.82l3.289 5.935a.603.603 0 101.056-.586L10.905.646a.606.606 0 00-.822-.236zm16.602 9.878a2.231 2.231 0 00-2.231 2.23v7.9a2.231 2.231 0 004.462 0v-7.9a2.231 2.231 0 00-2.231-2.23zm-7.9 9.016a2.231 2.231 0 00-2.231 2.23v7.9a2.231 2.231 0 004.462 0v-7.9a2.231 2.231 0 00-2.231-2.23zM21.167.41a.603.603 0 01.235.82l-3.289 5.935a.603.603 0 11-1.056-.586L20.346.645a.605.605 0 01.821-.235zM4.565 10.288c1.232 0 2.231.999 2.231 2.23v7.9a2.231 2.231 0 01-4.462 0v-7.9c0-1.231.999-2.23 2.231-2.23zm7.9 9.016c1.232 0 2.231.999 2.231 2.23v7.9a2.231 2.231 0 01-4.462 0v-7.9c0-1.231.999-2.23 2.231-2.23z" fill="#A4C638"/><path d="M13.667 7.812a.93.93 0 01-.822-.484l-3.29-5.934a.94.94 0 011.642-.91l3.289 5.934c.122.219.15.473.081.714a.93.93 0 01-.447.562.93.93 0 01-.453.118zM10.246.702a.27.27 0 00-.105.367l3.289 5.934a.264.264 0 00.161.128.27.27 0 00.31-.389L10.612.808a.27.27 0 00-.366-.105zm16.439 22.282a2.568 2.568 0 01-2.565-2.565v-7.9a2.568 2.568 0 012.565-2.565 2.568 2.568 0 012.565 2.565v7.9a2.566 2.566 0 01-2.565 2.565zm0-12.361a1.898 1.898 0 00-1.896 1.896v7.9c0 1.046.851 1.896 1.896 1.896a1.899 1.899 0 001.896-1.896v-7.9c0-1.046-.85-1.896-1.896-1.896zM18.785 32a2.568 2.568 0 01-2.565-2.565v-7.9a2.568 2.568 0 012.565-2.565 2.568 2.568 0 012.565 2.565v7.9A2.568 2.568 0 0118.785 32zm0-12.362a1.898 1.898 0 00-1.896 1.896v7.9c0 1.046.851 1.896 1.896 1.896a1.899 1.899 0 001.896-1.896v-7.9c0-1.045-.85-1.896-1.896-1.896zM17.583 7.812a.937.937 0 01-.82-1.394L20.052.484a.94.94 0 011.642.91l-3.289 5.934a.934.934 0 01-.822.484zM20.874.669a.269.269 0 00-.236.139l-3.289 5.934a.27.27 0 00.471.26l3.289-5.933a.27.27 0 00-.235-.4zM4.565 22.984A2.568 2.568 0 012 20.419v-7.9a2.568 2.568 0 012.565-2.565 2.568 2.568 0 012.565 2.565v7.9a2.568 2.568 0 01-2.565 2.565zm0-12.361a1.899 1.899 0 00-1.896 1.896v7.9c0 1.046.851 1.896 1.896 1.896a1.899 1.899 0 001.896-1.896v-7.9a1.898 1.898 0 00-1.896-1.896zM12.465 32A2.568 2.568 0 019.9 29.435v-7.9a2.568 2.568 0 012.565-2.565 2.568 2.568 0 012.565 2.565v7.9A2.568 2.568 0 0112.465 32zm0-12.362a1.899 1.899 0 00-1.896 1.896v7.9c0 1.046.851 1.896 1.896 1.896a1.899 1.899 0 001.896-1.896v-7.9a1.899 1.899 0 00-1.896-1.896z" fill="#fff"/><path d="M24.082 10.279c-.005-4.308-3.789-7.798-8.457-7.798-4.668 0-8.452 3.49-8.457 7.798h16.914zM19.529 5.77a.707.707 0 010 1.412.707.707 0 010-1.412zm-7.808 0a.707.707 0 010 1.412.706.706 0 010-1.412zM7.167 10.948v12.259c0 1.129.915 2.045 2.045 2.045h12.826a2.045 2.045 0 002.045-2.045v-12.26H7.167z" fill="#A4C638"/></svg>
